!!!SOCIAL_FUNCTION:	songs of the sun dance
!!!PDT:	1922
!!!OTL: No_26_Sun_Dance_Song_(i).krn
!!!REG: Southwest
!!!LANG: Non-Tone
!!!LING_GROUP: Uto-Aztecan
**kern
*staff1
=1-
*clefF4
*k[f#c#g#d#a#]
*M2/4
4.g#\
8d#\
=2
4d#\
4c#\
=3||
*M3/4
32f#\LLK
16.d#\
16g#\
16d#\JJ
4d#\
4c#\
=4
4B\
2G#\
=5||
*M2/4
16B\LK
8.G#\J
16B\LK
8.G#\J
=6
8.B\L
16G#\Jk
4G#\
=7
16B\LK
8.G#\J
8.c#\L
16B\Jk
=8
16B\LK
8.G#\J
8.c#\L
16B\Jk
=9||
*M3/4
16B\LK
8.G#\J
2G#\
=10
2.G#\
==
*-
